icons/baby_female_0203m_alt_fill.svg

<svg width="48" height="48" viewBox="0 0 48 48" fill="none" xmlns="http://www.w3.org/2000/svg">
<path d="M32.9999 18C36.3138 18 39 15.3138 39 12.0001C39 8.68635 36.3138 6 32.9999 6C29.6862 6 27 8.68635 27 12.0001C27 15.3138 29.6862 18 32.9999 18Z" fill="black"/>
<path fill-rule="evenodd" clip-rule="evenodd" d="M12 16C14.2091 16 16 14.2091 16 12C16 9.79086 14.2091 8 12 8C9.79086 8 8 9.79086 8 12C8 14.2091 9.79086 16 12 16ZM18 12C18 14.973 15.8377 17.441 13 17.917V20H15C15.5523 20 16 20.4477 16 21C16 21.5523 15.5523 22 15 22H13V25C13 25.5523 12.5523 26 12 26C11.4477 26 11 25.5523 11 25V22H9C8.44772 22 8 21.5523 8 21C8 20.4477 8.44772 20 9 20H11V17.917C8.16229 17.441 6 14.973 6 12C6 8.68629 8.68629 6 12 6C15.3137 6 18 8.68629 18 12Z" fill="black"/>
<path fill-rule="evenodd" clip-rule="evenodd" d="M24 16.447V21.344C27.0712 22.7417 30.4633 25.2379 33.4193 28.3013C36.3759 31.3653 38.9617 35.0642 40.3531 38.9118C41.4665 37.5075 42 35.7744 42 34.0413V33.1867C40.556 29.5157 37.5648 25.8432 33.9861 22.7526C31.9581 21.0013 29.7695 19.461 27.615 18.2307C27.4277 18.1285 27.2384 18.0226 27.0469 17.913C26.0121 17.3466 24.9892 16.8543 24 16.447ZM34.0324 20.1913C34.4587 20.532 34.8794 20.8815 35.2933 21.2389C37.893 23.484 40.2616 26.0782 42 28.8309V17C38.9579 19.1783 36.49 20.186 34.0324 20.1913ZM38.7134 40.3022C38.7248 40.338 38.738 40.3728 38.7529 40.4064C37.5642 41.2278 36.0371 41.7895 34.1518 41.9517C33.229 39.9757 32.1225 38.1041 30.9294 36.4181C28.7774 33.3769 26.29 30.8647 24 29.4314V23.5663C26.5793 24.8932 29.4277 27.045 31.9801 29.6901C34.9968 32.8164 37.5254 36.5546 38.7134 40.3022ZM24 31.8666V34.0413C24 37.249 26.4873 41.4621 31.9298 41.9528C31.152 40.4058 30.2566 38.9297 29.2968 37.5734C27.5912 35.1631 25.7191 33.1828 24 31.8666Z" fill="black"/>
</svg>

<svg
  xmlns="http://www.w3.org/2000/svg"
  width="24"
  height="24"
  viewBox="0 0 24 24"
  fill="none"
  stroke="currentColor"
  stroke-width="2"
  stroke-linecap="round"
  stroke-linejoin="round"
>
  <path d="M33 18a6 6 0 1 0 0-12 6 6 0 0 0 0 12" />
  <path
    fill-rule="evenodd"
    d="M12 16a4 4 0 1 0 0-8 4 4 0 0 0 0 8m6-4a6 6 0 0 1-5 5.917V20h2a1 1 0 1 1 0 2h-2v3a1 1 0 1 1-2 0v-3H9a1 1 0 1 1 0-2h2v-2.083A6.002 6.002 0 0 1 12 6a6 6 0 0 1 6 6"
    clip-rule="evenodd"
  />
  <path
    fill-rule="evenodd"
    d="M24 16.447v4.897c3.071 1.398 6.463 3.894 9.42 6.957 2.956 3.064 5.542 6.763 6.933 10.61C41.467 37.508 42 35.775 42 34.042v-.854c-1.444-3.671-4.435-7.344-8.014-10.434a41 41 0 0 0-6.371-4.522 32 32 0 0 1-.568-.318A31 31 0 0 0 24 16.447m10.032 3.744q.64.511 1.261 1.048c2.6 2.245 4.969 4.84 6.707 7.592V17c-3.042 2.178-5.51 3.186-7.968 3.191m4.681 20.111q.018.053.04.104c-1.189.822-2.716 1.383-4.601 1.546a36 36 0 0 0-3.223-5.534c-2.152-3.041-4.639-5.553-6.929-6.987v-5.865c2.58 1.327 5.428 3.479 7.98 6.124 3.017 3.126 5.545 6.865 6.733 10.612M24 31.867v2.174c0 3.208 2.487 7.421 7.93 7.912a34 34 0 0 0-2.633-4.38c-1.706-2.41-3.578-4.39-5.297-5.706"
    clip-rule="evenodd"
  />
</svg>
